X:1
T:Don't Take Away My PWA
M:12/8
L:1/8
K:C
 c3- cc cG G C- C3| z2 z ccc c2 G GFE| C6- C6| z8 z4| c3- cc cc c C- C3|\
 z2 z ccc c2 G FFF| C6- C6| z4 z2 z2 z2 _B_B| =BGG BBB GFG z2 G| c6 c2 GGF-E|\
 C6- C6|
